!!!COM: Charles Gounod
!!!CNT: Francais
!!!TXO: Francais
!!!OTL: Medje/
!!!ODT: 1865/
!!!LYR: Jules Barbier
!!!ENC: Jacob Pegg
!!!YOR: Romantic French Song 1830-1870 -David Tunley, ed.,
!!!YOR: New York: Garland Publishing, Inc., 1995, Vol. 5
!!NB: "chanson arabe"
!!NB: Vocal melody and text only encoded.
!!NB: First instance of melodic material only encoded.
**kern	**silbe
*clef G2	*
*k[b-e-]	*
*M3/4	*
*MM[allegretto]	*
!!created: 5/29/03 23:12
!!proofed and posted: 5/30/03 0:00
!!edit time: 33 min.
=7	=7
{8dd	{O^
8cc	Med-
[4cc	-je/,
8cc]	|
8cc	qui
=8	=8
8cc	d'un
8b-	sou-
4b-	-ri-
8b-}	-re}
8r	.
=9	=9
{8b-	{En-
8a	-chai^-
8a	-nas
8cc	ma
8cc	li-
8ee-	-ber-
=10	=10
[4dd	-te/,
8dd]}	|}
8r	.
{4dd	{Sois
=11	=11
4ffn	fie\-
8cc	-re
8ee-	de
8dd	ton
8cc	em-
=12	=12
4dd	-pi-
4b-}	-re,}
8r	.
{8b-	{Com-
=13	=13
4dd	-mande
8a	a\
8cc	ma
8b-	vo-
8a	-lon-
=14	=14
[4g	-te/.
8g]}	|}
8r	.
8r	.
{8dd	{Na-
=15	=15
8dd	-gue\-
8gg	-re en-
4ffn	-cor,
8ee-	sans
8dd	en-
=16	=16
4dd	-tra-
(8ccq	|
8ee-q	|
8ddq)	|
8cc}	-ves,}
8r	.
{4cc	{Com-
=17	=17
8cc	-me
8ff	l'oi-
4ee-	-seau
8dd	dans
8cc	les
=18	=18
[4b-	airs,
8b-]}	|}
8r	.
{8dd	{Ton
8dd	re-
=19	=19
8dd	-gard
8cc#	a
4.cc#	fait
8gg	es-
=20	=20
4ff#	-cla-
4a}	-ve}
8r	.
{8a	{Le
=21	=21
8bn	li-
8dd	-bre en-
4dd	-fant
8.cc#	des
16a	de/-
=22	=22
[4dd	-serts.
8dd]}	|}
8r	.
8r	.
{8dd	{Med-
=23	=23
[4dd	-je/!
8dd]}	|}
8r	.
8r	.
{8dd	{Med-
=24	=24
[4dd	-je/!
8dd]}	|}
8r	.
{4dd	{La
=25	=25
*k[f#]	*
[4dd	voix
8dd]	|
8b	de
8a	l'a-
8g	-mour
=26	=26
4b	me^-
8a}	-me}
8r	.
{4ee-	{De-
=27	=27
[4dd	-vrait
8dd]	|
8b	le
8a	de/-
8g	-sar-
=28	=28
(4b	-mer!
8a)}	|}
8r	.
{4ee-	{He/-
=29	=29
[2dd	-las!
8dd]}	|}
8r	.
=30	=30
8r	.
{8g	{Tu
8a	dou-
8b	-tes
8cc	que
8dd	je
=31	=31
4dd	t'ai-
4ee-}	-me}
4r	.
=32	=32
{8ee-	{Quand
8ee-	je
4gg	meurs
8ffn	de
8ee-	t'ai-
=33	=33
[2dd	-mer!
8dd]}	|}
8r	.
=34	=34
{8a	{Quand
8b-	je
4cc	meurs
8b-	de
8a	t'ai-
=35	=35
*k[b-e-]	*
[4g	-mer!
8g]}	|}
4r	.
8r	.
*-	*-
